X:191
T:Bunch of Green Rushes
R:reel
Z:transcribed by Dave Marshall
M:C|
K:Dmix
|: cAGA ~=F3c | cAGc AddB | cAGA =F2eg | fdec Addc :|
|: ~d3B cAGA | =FGAc cAGc | AddB cAGA |1 cdeg fdd2 :|2 cdeg fdec |
|: ~d3f afdB | cdeg gece |1 ~d3f afdB | cAGc Add2 :|2 ~f3g fedB | cAGc Add2 |
